svg/fluentui-system-icons/ic_fluent_code_py_16_filled.svg

<svg width="16" height="16" viewBox="0 0 16 16" fill="none" xmlns="http://www.w3.org/2000/svg">
<path d="M14.4408 3.89373C14.5188 3.94973 14.5858 4.02173 14.6388 4.10773L14.6368 4.10873C14.6888 4.19073 14.7248 4.28573 14.7398 4.38473C14.7548 4.47773 14.7518 4.57573 14.7308 4.67273C14.7058 4.77273 14.6658 4.86173 14.6088 4.93973L12.2488 8.24373V11.5037C12.2488 11.7017 12.1688 11.8947 12.0288 12.0347C11.8888 12.1757 11.6998 12.2537 11.4988 12.2537C11.2978 12.2537 11.1098 12.1757 10.9688 12.0347C10.8288 11.8957 10.7488 11.7017 10.7488 11.5037V8.24373L8.3888 4.93973C8.3308 4.85973 8.2878 4.76673 8.2668 4.67173C8.2448 4.57373 8.2408 4.47573 8.2568 4.37973C8.2738 4.28573 8.3088 4.19073 8.3608 4.10673C8.4138 4.02173 8.4818 3.94973 8.5638 3.89073C8.6438 3.83273 8.7338 3.79173 8.8318 3.76973C8.9228 3.74773 9.0238 3.74373 9.1238 3.75973C9.2218 3.77573 9.3158 3.81073 9.3998 3.86473C9.4848 3.91873 9.5558 3.98573 9.6128 4.06473L11.4998 6.71173L13.3898 4.06573C13.4438 3.98773 13.5158 3.91973 13.6018 3.86573C13.6858 3.81273 13.7788 3.77773 13.8788 3.76073C13.9808 3.74473 14.0778 3.74873 14.1738 3.77173C14.2678 3.79273 14.3588 3.83373 14.4408 3.89373ZM3.5 3.75275H5.75C6.418 3.75375 7.046 4.01375 7.518 4.48575C7.989 4.95675 8.25 5.58475 8.25 6.25275C8.249 6.92175 7.99 7.54975 7.518 8.02075C7.045 8.49275 6.418 8.75275 5.75 8.75275H4.25V11.5027C4.25 11.7007 4.17 11.8937 4.03 12.0337C3.89 12.1747 3.701 12.2527 3.5 12.2527C3.299 12.2527 3.111 12.1747 2.97 12.0337C2.83 11.8947 2.75 11.7007 2.75 11.5027V4.50275C2.75 4.30575 2.83 4.11275 2.97 3.97275C3.111 3.83075 3.3 3.75275 3.5 3.75275ZM4.25 7.25275H5.75C6.014 7.25275 6.27 7.14675 6.456 6.95975C6.645 6.77175 6.75 6.51975 6.75 6.25175C6.749 5.98575 6.644 5.73475 6.456 5.54675C6.27 5.35975 6.013 5.25275 5.749 5.25275H4.25V7.25275Z" fill="#212121"/>
</svg>

<svg xmlns="http://www.w3.org/2000/svg" width="16" height="16"><path d="M14.44 3.894a.739.739 0 0 1 .199.214h-.002a.72.72 0 0 1 .103.277.778.778 0 0 1-.01.288.758.758 0 0 1-.121.267l-2.36 3.304v3.26c0 .198-.08.39-.22.53a.742.742 0 0 1-.53.22.753.753 0 0 1-.75-.75v-3.26L8.389 4.94a.758.758 0 0 1-.132-.56.76.76 0 0 1 .867-.62.768.768 0 0 1 .489.305L11.5 6.712l1.89-2.646a.751.751 0 0 1 1.051-.172ZM3.5 3.753h2.25a2.49 2.49 0 0 1 1.768.733c.471.47.732 1.099.732 1.767a2.485 2.485 0 0 1-.732 1.768c-.473.472-1.1.732-1.768.732h-1.5v2.75c0 .198-.08.39-.22.53a.742.742 0 0 1-.53.22.753.753 0 0 1-.75-.75v-7a.755.755 0 0 1 .75-.75Zm.75 3.5h1.5a1 1 0 0 0-.001-2H4.25v2Z"/></svg>
